app/images/logos/logo_github.svg

<?xml version="1.0" encoding="UTF-8"?>
<svg width="24px" height="24px" viewBox="0 0 24 24" version="1.1" xmlns="http://www.w3.org/2000/svg" xmlns:xlink="http://www.w3.org/1999/xlink">
    <!-- Generator: Sketch 52.5 (67469) - http://www.bohemiancoding.com/sketch -->
    <title>v</title>
    <desc>Created with Sketch.</desc>
    <defs>
        <polygon id="path-1" points="0 -3.55271368e-15 19.3437812 -3.55271368e-15 19.3437812 18.8661687 0 18.8661687"></polygon>
    </defs>
    <g id="v" stroke="none" stroke-width="1" fill="none" fill-rule="evenodd">
        <g id="Group-3" transform="translate(2.200000, 2.500000)">
            <mask id="mask-2" fill="white">
                <use xlink:href="#path-1"></use>
            </mask>
            <g id="Clip-2"></g>
            <path d="M9.67135625,-3.55271368e-15 C4.330575,-3.55271368e-15 -0.0002375,4.33021875 -0.0002375,9.67278125 C-0.0002375,13.9454062 2.77079375,17.57025 6.61473125,18.8497812 C7.0986375,18.93825 7.27498125,18.6395937 7.27498125,18.3830937 C7.27498125,18.1539062 7.26666875,17.5453125 7.26191875,16.7384062 C4.5716375,17.3226562 4.0040125,15.4416562 4.0040125,15.4416562 C3.56404375,14.3242187 2.92991875,14.0273437 2.92991875,14.0273437 C2.0517625,13.4270625 2.99641875,13.4389375 2.99641875,13.4389375 C3.9672,13.5078125 4.477825,14.4358437 4.477825,14.4358437 C5.34054375,15.9136875 6.7412,15.4867812 7.29279375,15.2397812 C7.38066875,14.6145625 7.63004375,14.18825 7.90673125,13.9465937 C5.7591375,13.7025625 3.50110625,12.8725 3.50110625,9.1663125 C3.50110625,8.110625 3.8781375,7.2473125 4.496825,6.57103125 C4.397075,6.32640625 4.06516875,5.34315625 4.59123125,4.011375 C4.59123125,4.011375 5.40348125,3.7513125 7.25123125,5.0029375 C8.0225125,4.788 8.8502,4.681125 9.67254375,4.67696875 C10.4937,4.681125 11.3213875,4.788 12.0938562,5.0029375 C13.9404188,3.7513125 14.7508875,4.011375 14.7508875,4.011375 C15.2787312,5.34315625 14.946825,6.32640625 14.847075,6.57103125 C15.46695,7.2473125 15.8416062,8.110625 15.8416062,9.1663125 C15.8416062,12.882 13.5800125,13.6995937 11.4252938,13.938875 C11.7726375,14.2375312 12.0819813,14.8277187 12.0819813,15.7302187 C12.0819813,17.0228125 12.0701062,18.0660312 12.0701062,18.3830937 C12.0701062,18.6419687 12.244075,18.943 12.7351062,18.8485937 C16.5748875,17.5666875 19.3441375,13.9442187 19.3441375,9.67278125 C19.3441375,4.33021875 15.013325,-3.55271368e-15 9.67135625,-3.55271368e-15" id="Fill-1" fill="#181717" mask="url(#mask-2)"></path>
        </g>
    </g>
</svg>

<svg width="24" height="24" viewBox="0 0 24 24" xmlns="http://www.w3.org/2000/svg" xmlns:xlink="http://www.w3.org/1999/xlink"><title>v</title><defs><path id="a" d="M0 0h19.344v18.866H0z"/></defs><g transform="translate(2.200000, 2.500000)" fill="none" fill-rule="evenodd"><mask id="b" fill="#fff"><use xlink:href="#a"/></mask><path d="M9.671 0C4.331 0 0 4.33 0 9.673c0 4.272 2.77 7.897 6.615 9.177.484.088.66-.21.66-.467 0-.23-.008-.838-.013-1.645-2.69.585-3.258-1.296-3.258-1.296-.44-1.118-1.074-1.415-1.074-1.415-.878-.6.066-.588.066-.588.971.069 1.482.997 1.482.997.863 1.478 2.263 1.05 2.815.804.088-.625.337-1.052.614-1.293-2.148-.244-4.406-1.074-4.406-4.78 0-1.056.377-1.92.996-2.596-.1-.245-.432-1.228.094-2.56 0 0 .812-.26 2.66.992a9.264 9.264 0 0 1 2.422-.326 9.277 9.277 0 0 1 2.42.326c1.847-1.252 2.658-.992 2.658-.992.528 1.332.196 2.315.096 2.56.62.676.995 1.54.995 2.595 0 3.716-2.262 4.534-4.417 4.773.348.299.657.889.657 1.791 0 1.293-.012 2.336-.012 2.653 0 .259.174.56.665.466A9.673 9.673 0 0 0 9.671 0" fill="#181717" mask="url(#b)"/></g></svg>
